public/svgs/regular/browser.svg

<svg xmlns="http://www.w3.org/2000/svg" viewBox="0 0 512 512"><!-- Font Awesome Pro 6.0.0-alpha2 by @fontawesome - https://fontawesome.com License - https://fontawesome.com/license (Commercial License) --><path d="M448 32H64C28.654 32 0 60.652 0 96V416C0 451.348 28.654 480 64 480H448C483.346 480 512 451.348 512 416V96C512 60.652 483.346 32 448 32ZM464 416C464 424.824 456.822 432 448 432H64C55.178 432 48 424.824 48 416V160H464V416Z"/></svg>

<svg xmlns="http://www.w3.org/2000/svg" viewBox="0 0 512 512"><!--! Font Awesome Pro 6.5.1 by @fontawesome - https://fontawesome.com License - https://fontawesome.com/license (Commercial License) Copyright 2023 Fonticons, Inc. --><path d="M.3 89.5C.1 91.6 0 93.8 0 96v64V416c0 35.3 28.7 64 64 64l384 0c35.3 0 64-28.7 64-64V160 96c0-35.3-28.7-64-64-64H64c-2.2 0-4.4 .1-6.5 .3c-9.2 .9-17.8 3.8-25.5 8.2C21.8 46.5 13.4 55.1 7.7 65.5c-3.9 7.3-6.5 15.4-7.4 24zM48 160H464l0 256c0 8.8-7.2 16-16 16L64 432c-8.8 0-16-7.2-16-16l0-256z"/></svg>
